assets/image/instagram--oncard.svg

<svg width="43" height="43" viewBox="0 0 43 43" fill="none" xmlns="http://www.w3.org/2000/svg">
<rect width="42.0045" height="42" transform="translate(0.499939 0.5)" fill="#5DCBE6"/>
<path d="M21.5044 16.3723C18.6661 16.3723 16.3767 18.6617 16.3767 21.5C16.3767 24.3384 18.6661 26.6278 21.5044 26.6278C24.3427 26.6278 26.6321 24.3384 26.6321 21.5C26.6321 18.6617 24.3427 16.3723 21.5044 16.3723ZM21.5044 24.8337C19.6702 24.8337 18.1707 23.3387 18.1707 21.5C18.1707 19.6613 19.6657 18.1663 21.5044 18.1663C23.3431 18.1663 24.8381 19.6613 24.8381 21.5C24.8381 23.3387 23.3386 24.8337 21.5044 24.8337ZM28.0379 16.1625C28.0379 16.8275 27.5024 17.3585 26.8419 17.3585C26.1769 17.3585 25.6459 16.823 25.6459 16.1625C25.6459 15.502 26.1814 14.9665 26.8419 14.9665C27.5024 14.9665 28.0379 15.502 28.0379 16.1625ZM31.4341 17.3764C31.3582 15.7743 30.9923 14.3551 29.8186 13.1858C28.6493 12.0166 27.2302 11.6506 25.628 11.5703C23.9768 11.4766 19.0276 11.4766 17.3763 11.5703C15.7786 11.6462 14.3595 12.0121 13.1858 13.1814C12.012 14.3506 11.6506 15.7698 11.5702 17.3719C11.4765 19.0232 11.4765 23.9724 11.5702 25.6236C11.6461 27.2258 12.012 28.6449 13.1858 29.8142C14.3595 30.9834 15.7742 31.3494 17.3763 31.4297C19.0276 31.5234 23.9768 31.5234 25.628 31.4297C27.2302 31.3539 28.6493 30.9879 29.8186 29.8142C30.9878 28.6449 31.3538 27.2258 31.4341 25.6236C31.5278 23.9724 31.5278 19.0276 31.4341 17.3764ZM29.3009 27.3954C28.9528 28.2701 28.2789 28.944 27.3998 29.2965C26.0832 29.8187 22.9593 29.6982 21.5044 29.6982C20.0495 29.6982 16.9211 29.8142 15.6091 29.2965C14.7343 28.9484 14.0605 28.2745 13.7079 27.3954C13.1858 26.0788 13.3063 22.9549 13.3063 21.5C13.3063 20.0451 13.1902 16.9167 13.7079 15.6047C14.056 14.73 14.7299 14.0561 15.6091 13.7035C16.9256 13.1814 20.0495 13.3019 21.5044 13.3019C22.9593 13.3019 26.0877 13.1858 27.3998 13.7035C28.2745 14.0516 28.9483 14.7255 29.3009 15.6047C29.823 16.9212 29.7026 20.0451 29.7026 21.5C29.7026 22.9549 29.823 26.0833 29.3009 27.3954Z" fill="white"/>
</svg>

<svg xmlns="http://www.w3.org/2000/svg" width="43" height="43" fill="none"><path fill="#5DCBE6" d="M.5.5h42.005v42H.5z"/><path fill="#fff" d="M21.504 16.372a5.12 5.12 0 0 0-5.127 5.128 5.12 5.12 0 0 0 5.127 5.128 5.12 5.12 0 0 0 5.128-5.128 5.12 5.12 0 0 0-5.128-5.128Zm0 8.462a3.34 3.34 0 0 1-3.333-3.334 3.337 3.337 0 0 1 3.333-3.334 3.337 3.337 0 0 1 3.334 3.334 3.34 3.34 0 0 1-3.334 3.334Zm6.534-8.671c0 .665-.536 1.195-1.196 1.195a1.196 1.196 0 1 1 1.196-1.196Zm3.396 1.213c-.076-1.602-.442-3.02-1.615-4.19-1.17-1.17-2.589-1.535-4.191-1.616-1.651-.093-6.6-.093-8.252 0-1.597.076-3.017.442-4.19 1.611-1.174 1.17-1.535 2.589-1.616 4.19-.094 1.652-.094 6.601 0 8.253.076 1.602.442 3.02 1.616 4.19 1.174 1.17 2.588 1.535 4.19 1.616 1.652.093 6.6.093 8.252 0 1.602-.076 3.021-.442 4.19-1.616 1.17-1.17 1.536-2.588 1.616-4.19.094-1.652.094-6.596 0-8.248Zm-2.133 10.02a3.375 3.375 0 0 1-1.901 1.9c-1.317.523-4.44.402-5.896.402-1.455 0-4.583.116-5.895-.401a3.375 3.375 0 0 1-1.901-1.902c-.522-1.316-.402-4.44-.402-5.895 0-1.455-.116-4.583.402-5.895a3.375 3.375 0 0 1 1.901-1.902c1.317-.522 4.44-.401 5.895-.401 1.455 0 4.584-.116 5.896.402a3.375 3.375 0 0 1 1.9 1.9c.523 1.317.403 4.441.403 5.896s.12 4.583-.402 5.895Z"/></svg>
